packages/katcn/src/icons/svg/arrow1-solid.svg

<svg width="24" height="25" viewBox="0 0 24 25" fill="none" xmlns="http://www.w3.org/2000/svg">
<path d="M7.5 22.296C7 22.296 6.4 22.196 5.9 21.896C4.7 21.296 4 20.196 4 18.896V5.69599C4 4.39599 4.7 3.29599 5.9 2.69599C7.1 2.09599 8.6 2.19599 9.7 2.99599L18.4 9.59599C19.3 10.296 19.8 11.196 19.8 12.296C19.8 13.396 19.3 14.396 18.4 14.996L9.7 21.596C9.1 22.096 8.3 22.296 7.5 22.296Z" fill="black"/>
</svg>

<svg xmlns="http://www.w3.org/2000/svg" fill="none" viewBox="0 0 24 25"><path fill="#000" d="M7.5 22.296c-.5 0-1.1-.1-1.6-.4-1.2-.6-1.9-1.7-1.9-3v-13.2c0-1.3.7-2.4 1.9-3s2.7-.5 3.8.3l8.7 6.6c.9.7 1.4 1.6 1.4 2.7s-.5 2.1-1.4 2.7l-8.7 6.6c-.6.5-1.4.7-2.2.7"/></svg>
